!!!COM: Ce/cile Chaminade
!!!CNT: Francais
!!!TXO: Francais
!!!OTL: "Ritournelle"
!!!LYR: Coppe/e, Franc5ois
!!!ENC: Amanda Harris
!!!YOR: Album of Songs, Volume 1
!!!YOR: Da Capo Press
!!!ODT: 1886/
!!NB: Vocal melody and text encoded
**kern	**silbe
*clefG2	*
*k[]	*
*M4/4	*
*MM[andante]	*
=6	=6
{8c	{Dans
8d	la
8e	plai-
8g	-ne
4a	blonde
4g	et
=7	=7
12e	sous
12d	les
12e	al-
2c	-le/-
4B	-es,
=8	=8
8A	Pour
8B	mieux
8c	faire
8d	ac-
4e	-cueil
4c	au
=9	=9
12d	doux
12e	mes-
12c	-si-
2d}	-dor,}
4r	.
=10	=10
{8e	{Nous
8f	i-
8g	-rons
8a	chas-
4b	-ser
4cc	les
=11	=11
12cc	cho-
12b	-ses
12a	ai-
2d	le/
8g	-es,
8r	.
=12	=12
4a	Moi,
4b	la
8e	strophe,
8e	et
[4a	toi
=13	=13
*M2/4	*
8a]	|
8f	le
12e	pa-
12d	-pil-
12e	-lon
=14	=14
*M4/4	*
2c}	d'or}
2r	.
=16	=16
*k[b-e-a-d-]	*
{8e-	{Et
8a-	nous
8a-	choi-
8a-	-si-
8g	-rous
8f	les
12e-	rou-
12c	-tes
12e-	ten-
=17	=17
4f	-tan-
[4f	-tes,
8f]}	|}
8r	.
{8f	{Sous
8f	les
=18	=18
8g	sau-
8f	-les
8e-	gris
8c	et
8B-	pre\
4d-	des
8c	ro-
=19	=19
[2B-	-seaux,
8B-]}	|}
8r	.
{[4e-	{Pour
=20	=20
8e-]	|
8f	mieux
8g	e\-
8a-	-cou-
8g	-ter
8f	les
12e-	cho-
12c	-ses
12e-	chan-
=21	=21
4f	-tan-
[2f	tes,
8f]}	|}
8r	.
=22	=22
{8g-	{Pour
8a-	mieux
8b-	e\-
8cc-	-cou-
8b-	-ter
8a-	les
12g-	cho-
12e-	-ses
12g-	chan-
=23	=23
4gn	-tan-
[2g	-tes;
8g]}	|}
8r	.
=24	=24
*k[]	*
{8g	{Moi,
8g	le
4.g	rythme,
8g	et
[4g	toi,
=25	=25
4g]	|
4g	le
4g	choeur
8g	des
8g	oi-
=26	=26
2g}	-seaux.}
2r	.
=31	=31
{8c	{Sui-
8d	-vant
8e	tous
8g	les
4a	deux
4g	les
=32	=32
12e	ri-
12d	-ves
12e	char-
2c	-me/-
4B}	-es,}
=33	=33
{8A	{Que
8B	le
8c	fleu-
8d	-ve
4e	bat
4c	de
=34	=34
12d	ses
12e	flots
12c	par-
2d}	-leurs,}
4r	.
=35	=35
{8e	{Nous
8f	vous
8g	trou-
8a	-ve-
4b	-rons,
4cc	cho-
=36	=36
12cc	-ses
12b	par-
12a	-fu-
2dd	-me/-
8g}	-es,}
8r	.
=37	=37
{8g#	{Moi,
8g#	gla-
8a	-naut
8a	des
2d	vers,
=38	=38
8a#	toi
8a#	cueil-
8b	-lant
8b	des
2e}	fleurs.}
=39	=39
{8cc	{Et
8b	l'a-
8a	-mour
8e	ser-
4a	-vant
4e	no-
=40	=40
12f	-tre
12g	fan-
12a	-tai-
2e	-si-
4d}	-e,}
=41	=41
{8c	{Fe-
8d	-ra
8e	ce
8g	jour
2cc	la\
=42	=42
8d	l'e/-
8e	-te/
8f	plus
8a	char-
2dd}	-mant,}
=43	=43
{8ee-	{Je
8d	se-
8c	-rai
8g	po-
4cc	-e\te
4g	et
=44	=44
12a-	toi
12b-	po-
12cc	-e/-
2g	-si-
4f#}	-e,}
=45	=45
{8fn	{Tu
8a	se-
8g	-ras
8e	plus
4c	belle
8d	et-
8e	|
=46	=46
2g	moi
4.g	plus
8g	ai-
=47	=47
[1g	-mant.
=48	=48
1g]}	|}
*-	*-
